64x64/apps/appimagekit-fspy.svg

<svg height="64" width="64" xmlns="http://www.w3.org/2000/svg"><circle cx="32" cy="33" opacity=".2" r="28"/><circle cx="32" cy="32" fill="#455259" r="28"/><g fill="none" stroke-width="2.8"><path d="m32 50.5-8.26-13.3 8.26-4.27 8.26 4.27zm16.1-25.9-16.1 25.9-8.26-13.3zm-32.2 0 16.1 25.9 8.26-13.3z" opacity=".2" stroke="#000"/><path d="m15.9 23.6 16.1 25.9 8.26-13.3z" stroke="#ff5e49"/><path d="m48.1 23.6-16.1 25.9-8.26-13.3z" stroke="#5cd262"/><path d="m32 49.5-8.26-13.3 8.26-4.27 8.26 4.27z" stroke="#f4f4f7"/></g><path d="m32 4a28 28 0 0 0 -28 28 28 28 0 0 0 .018.492 28 28 0 0 1 27.982-27.492 28 28 0 0 1 27.975 27.492 28 28 0 0 0 .025-.492 28 28 0 0 0 -28-28z" fill="#f4f4f7" opacity=".1"/></svg>

<svg height="64" width="64" xmlns="http://www.w3.org/2000/svg">
    <circle cx="32" cy="33" opacity=".2" r="28"/>
    <circle cx="32" cy="32" fill="#455259" r="28"/>
    <g fill="none" stroke-width="2.8">
        <path d="m32 50.5-8.26-13.3L32 32.93l8.26 4.27zm16.1-25.9L32 50.5l-8.26-13.3zm-32.2 0L32 50.5l8.26-13.3z" opacity=".2" stroke="#000"/>
        <path d="M15.9 23.6 32 49.5l8.26-13.3z" stroke="#ff5e49"/>
        <path d="M48.1 23.6 32 49.5l-8.26-13.3z" stroke="#5cd262"/>
        <path d="m32 49.5-8.26-13.3L32 31.93l8.26 4.27z" stroke="#f4f4f7"/>
    </g>
    <path d="M32 4A28 28 0 0 0 4 32a28 28 0 0 0 .018.492A28 28 0 0 1 32 5a28 28 0 0 1 27.975 27.492A28 28 0 0 0 60 32 28 28 0 0 0 32 4z" fill="#f4f4f7" opacity=".1"/>
</svg>
